X:1
T:Je layme bien
T:Je layme bien
T:Orlande de Lassus
C:Orlande de Lassus
%%score [ 1 2 3 4 ]
L:1/8
Q:1/4=86
M:2/2
K:F
V:1 treble nm="Superius" snm="S"
V:2 treble nm="Altus" snm="A"
V:3 treble-8 nm="Tenor" snm="T"
V:4 bass nm="Bassus" snm="B"
V:1
 A4 B3 A | G6 B2 | c3 B AG AB | cB GB AG G2- | G2 F2 G4- | G4 z2 B2 | c3 B A4 | z2 d2 cB B2- | %8
w: Je lay- me|bien et|lay- * * * * *||* me- ray,|_ je|lay- me bien|et lay- * *|
 B2 A2 B4- | B2 B2 c3 B | A2 B2 BA GB | AG G4 F2 | G4 z4 | z2 A2 GGBB | AADG AA B2 | d2 c2 A2 B2- | %16
w: * me- ray,|_ je lay- me|bien et lay- * * *|* * * me-|ray,|à ce pro- pos suis|et se- ray et de- meu- ray|tout- te ma vi-|
 BA G4 F2 | G3 d cAcc | BG G2 DdcA | ccBG B2 A2- | AAGE GGBB | A2 AA B3 A | G6 B2 | c3 B AGAB | %24
w: |e, et quoy qu'on me dit-|par en- vi- e, et quoy qu'on|me dit par en- vi- e,|_ et quoy qu'on me dit par en-|vi- e, le lay- me|bien et|lay- * * * * *|
 cBGB AG G2- | G2 F2 G4- | G4 z2 B2 | c3 B A4 | z2 d2 cB B2- | B2 A2 B4- | B2 B2 c3 B | %31
w: |* me- ray,|_ je|lay- me bien,|et lay- * *|* me- ray,|_ je lay- me|
 A2 B2 BA GB | AG G4 F2 | G8 |] %34
w: bien et lay- * * *|* * * me-|ray.|
V:2
 z4 z2 D2 | _E3 D C2 G2 | AG G4 F2 | G2 _E2 E2 E2 | D6 D2 |"^b" E3 D C2 G2 | A2 G2 F4 | D2 G4 G2 | %8
w: Je|lay- me bien et|lay- * * me-|ray, et lay- me-|ray, je|lay- me bien et|lay- me ray,|je lay- me|
 F6 F2 |"^b" G3 F EF G2- |"^b" GF/E/ F2 B,2 E2- | E2 E2 D4- | D2 D2 DDFF | EEFF D_EDG | %14
w: bien, je|lay- me bien _ _|_ _ _ _ et lay-|* me- ray,|_ à ce pro- pos suis|et se- ray, à ce pro- pos suis|
"^-natural""^-natural" G^FGD F3 F | F2 E2 FEDC | B,2 C2 D4 | D4 F2 EC | D_EDD GD z F | %19
w: et se- ray et de- meu-|ray tout- te _ _ _|_ ma vi-|e, et quoy qu'on|ma dit par en- vi- e, et|
 ECD_E DD F2 | FFEC EE G2- | GG ^F2 G2 D2 | _E3 D C2 G2 | AG G4 F2 | G2 _E2 E2 E2 | D6 D2 | %26
w: quoy qu'on me dit par en- vi-|e, et quoy qu'on me dit par|_ en- vi- e, je|lay- me bien et|lay- * * me-|ray, je lay- me|bien, je|
"^b" E3 D C2 G2 | A2 G2 F4 | D2 G4 G2 | F6 F2 |"^b" G3 F EF G2- |"^b" GF/E/ F2 B,2 E2- | %32
w: lay- me bien et|lay- me- ray,|et lay- me-|ray, je|lay- me bien, _ _|_ _ _ _ et lay-|
 E2 E2 D4- | D8 |] %34
w: * me- ray.|_|
V:3
 z8 | z2 c2 _e3 d | c2 c2 d3 d | G2 B2 c3 B | A2 A2 =B3 B | c2 c2 _e3 d | c4 d2 c2- | %7
w: |Je lay- me|bien et lay- me-|ray, je lay- me|bien et lay- me|ray, je lay- me|bien et lay-|
"^b" cB Bc/d/ e3 d | c2 c2 B2 d2 |"^b" e3 d c2 c2 | d3 d G2 B2 | c3 B A2 A2 | G2 B2 ABcd | %13
w: |* me- ray, je|lay- me bien,- je|lay- me bien et|lay- * * me|ray, à ce pro- pos suis|
 dcdd =BcGe |"^b" cdBB c2 d2 | B2 G2 F4 | G4 A4 | G4 z4 | z cBG BBAF | A2 G4 z d | cAcG c2 d2 | %21
w: et se- ray, à ce pro- pos suis|et se- ray et- de- meu-|ray tout- te|ma vi-|e,|et quoy qu'on me dit par en-|vi- e, et|quoy qu'on me dit par en-|
 d4 G4 | z2 c2 _e3 d | c2 c2 d3 d | G2 B2 c3 B | A2 A2 =B3 B | c2 c2 _e3 d | c4 d2 c2- | %28
w: vi- e,|je lay- me|bien et lay- me-|ray, je lay- me|bien et lay- me-|ray, je lay- me|bien et lay-|
"^b" cB Bc/d/ e3 d | c2 c2 B2 d2 |"^b" e3 d c2 c2 | d3 d G2 B2 | c3 B A2 A2 | =B8 |] %34
w: |me- me- ray, je|lay- me bien et|lay- me- ray, et|lay- * * me|ray.|
V:4
"^#" z8 | z8 | z4 z2 D,2 | _E,3 D, C,2 C,2 | D,3 D, G,,4 | z8 | z4 z2 F,2 |"^#" G,3 F, _E,2 E,2 | %8
w: ||Je|lay- me bien et|lay- me- ray,||je|lay- me bien et|
 F,3 F, B,,4 | z8 | z2 D,2 _E,3 D, | C,2 C,2 D,3 D, | G,,2 G,2 ^F,G,A,B, | G,A, D,2 z4 | %14
w: lay- me- ray,||je lay- me|bien et jay- me|ray, à ce pro- pos suis|et se- ray|
 z D, G,2 F,2 B,,2- | B,,2 C,2 D,2 B,,2 |"^b" E,4 D,4 | z2 B,2 A,F,A,A, | G,C, G,2 G,2 z2 | %19
w: et de- meu- ray|_ tout- te ma|vi- e,|et quoy qu'on me dit|par en- vi- e,|
 z4 z G,F,D, | F,F, C,3 C, G,,2 | D,4 z4 | z8 | z4 z2 D,2 | _E,3 D, C,2 C,2 | D,3 D, G,,4 | z8 | %27
w: et quoy qu'on|me dit par en- vi-|e,||je|lay- me bien et|lay- me- ray,||
 z4 z2 F,2 |"^#" G,3 F, _E,2 E,2 | F,3 F, B,,4 | z8 | z2 D,2 _E,3 D, | C,2 C,2 D,3 D, | G,,8 |] %34
w: je|lay- me bien et|lay- me- ray,||je lay- me|bien et lay- me-|ray.|

